app/assets/images/remix_icon/user/emotion-normal-line.svg

<svg viewBox="0 0 24 24" xmlns="http://www.w3.org/2000/svg"><path d="M12 22C6.47715 22 2 17.5228 2 12C2 6.47715 6.47715 2 12 2C17.5228 2 22 6.47715 22 12C22 17.5228 17.5228 22 12 22ZM12 20C16.4183 20 20 16.4183 20 12C20 7.58172 16.4183 4 12 4C7.58172 4 4 7.58172 4 12C4 16.4183 7.58172 20 12 20ZM8 14H16V16H8V14ZM8 11C7.17157 11 6.5 10.3284 6.5 9.5C6.5 8.67157 7.17157 8 8 8C8.82843 8 9.5 8.67157 9.5 9.5C9.5 10.3284 8.82843 11 8 11ZM16 11C15.1716 11 14.5 10.3284 14.5 9.5C14.5 8.67157 15.1716 8 16 8C16.8284 8 17.5 8.67157 17.5 9.5C17.5 10.3284 16.8284 11 16 11Z"/></svg>

<svg xmlns="http://www.w3.org/2000/svg" viewBox="0 0 24 24">
    <g>
        <path fill="none" d="M0 0h24v24H0z"/>
        <path d="M12 22C6.477 22 2 17.523 2 12S6.477 2 12 2s10 4.477 10 10-4.477 10-10 10zm0-2a8 8 0 1 0 0-16 8 8 0 0 0 0 16zm-4-6h8v2H8v-2zm0-3a1.5 1.5 0 1 1 0-3 1.5 1.5 0 0 1 0 3zm8 0a1.5 1.5 0 1 1 0-3 1.5 1.5 0 0 1 0 3z"/>
    </g>
</svg>
